X: 101655
T: Johnny Loves Molly
T: T\'a Se\'ainin i nGr\'a le Mail\'i
S: B.Breathnach:"Ceol Rince na hEireann" IV/41 
Z: B.Black
L: 1/8
M: 9/8
R: slipjig
K: D
fdf ged cBA|fdf gec d2e|fdf gec d/e/fd|cAF ABc d2d :|
cAA BGA FDd|cAF ABc d2d|cAA BGA FDd|cAF ABc d3 :|
